vue-sthymuli/src/assets/check.svg

<?xml version="1.0" encoding="UTF-8" standalone="no"?>
<svg
   version="1.1"
   viewBox="-5.0 -10.0 110.0 135.0"
   id="svg10"
   sodipodi:docname="noun-check-8384289.svg"
   inkscape:version="1.2.2 (b0a8486541, 2022-12-01)"
   xmlns:inkscape="http://www.inkscape.org/namespaces/inkscape"
   xmlns:sodipodi="http://sodipodi.sourceforge.net/DTD/sodipodi-0.dtd"
   xmlns="http://www.w3.org/2000/svg"
   xmlns:svg="http://www.w3.org/2000/svg">
  <defs
     id="defs14" />
  <sodipodi:namedview
     id="namedview12"
     pagecolor="#ffffff"
     bordercolor="#666666"
     borderopacity="1.0"
     inkscape:showpageshadow="2"
     inkscape:pageopacity="0.0"
     inkscape:pagecheckerboard="0"
     inkscape:deskcolor="#d1d1d1"
     showgrid="false"
     inkscape:zoom="4.9037037"
     inkscape:cx="39.154079"
     inkscape:cy="67.601964"
     inkscape:window-width="1600"
     inkscape:window-height="831"
     inkscape:window-x="0"
     inkscape:window-y="32"
     inkscape:window-maximized="1"
     inkscape:current-layer="svg10" />
  <path
     d="m50 12.5c20.68 0 37.5 16.82 37.5 37.5s-16.82 37.5-37.5 37.5-37.5-16.82-37.5-37.5 16.82-37.5 37.5-37.5m0-10c-26.23 0-47.5 21.27-47.5 47.5s21.27 47.5 47.5 47.5 47.5-21.27 47.5-47.5-21.27-47.5-47.5-47.5z"
     id="path2" />
  <path
     d="m43.809 67.371c-1.2812 0-2.5586-0.48828-3.5391-1.4609l-12.371-12.371c-1.9492-1.9492-1.9492-5.1211 0-7.0703 1.9492-1.9492 5.1211-1.9492 7.0703 0l8.8398 8.8398 21.211-21.211c1.9492-1.9492 5.1211-1.9492 7.0703 0 1.9492 1.9492 1.9492 5.1211 0 7.0703l-24.738 24.742c-0.98047 0.98047-2.2617 1.4609-3.543 1.4609z"
     id="path4" />
</svg>

<?xml version="1.0" encoding="UTF-8" standalone="no"?>
<svg
   version="1.1"
   viewBox="-5 -5 110 110"
   id="svg10"
   sodipodi:docname="check.svg"
   inkscape:version="1.2.2 (b0a8486541, 2022-12-01)"
   width="110"
   height="110"
   xmlns:inkscape="http://www.inkscape.org/namespaces/inkscape"
   xmlns:sodipodi="http://sodipodi.sourceforge.net/DTD/sodipodi-0.dtd"
   xmlns="http://www.w3.org/2000/svg"
   xmlns:svg="http://www.w3.org/2000/svg">
  <defs
     id="defs14" />
  <sodipodi:namedview
     id="namedview12"
     pagecolor="#ffffff"
     bordercolor="#666666"
     borderopacity="1.0"
     inkscape:showpageshadow="2"
     inkscape:pageopacity="0.0"
     inkscape:pagecheckerboard="0"
     inkscape:deskcolor="#d1d1d1"
     showgrid="false"
     inkscape:zoom="4.9037037"
     inkscape:cx="31.914653"
     inkscape:cy="53.123112"
     inkscape:window-width="1600"
     inkscape:window-height="831"
     inkscape:window-x="0"
     inkscape:window-y="32"
     inkscape:window-maximized="1"
     inkscape:current-layer="svg10" />
  <path
     d="M 50,12.5 C 70.68,12.5 87.5,29.32 87.5,50 87.5,70.68 70.68,87.5 50,87.5 29.32,87.5 12.5,70.68 12.5,50 12.5,29.32 29.32,12.5 50,12.5 m 0,-10 C 23.77,2.5 2.5,23.77 2.5,50 2.5,76.23 23.77,97.5 50,97.5 76.23,97.5 97.5,76.23 97.5,50 97.5,23.77 76.23,2.5 50,2.5 Z"
     id="path2" />
  <path
     d="m 43.809,67.371 c -1.2812,0 -2.5586,-0.48828 -3.5391,-1.4609 l -12.371,-12.371 c -1.9492,-1.9492 -1.9492,-5.1211 0,-7.0703 1.9492,-1.9492 5.1211,-1.9492 7.0703,0 l 8.8398,8.8398 21.211,-21.211 c 1.9492,-1.9492 5.1211,-1.9492 7.0703,0 1.9492,1.9492 1.9492,5.1211 0,7.0703 l -24.738,24.742 c -0.98047,0.98047 -2.2617,1.4609 -3.543,1.4609 z"
     id="path4" />
</svg>
